modules/hawcons-stroke/icons/icon-26-hockey-sticks.svg

<?xml version="1.0" encoding="UTF-8" standalone="no"?>
<svg width="32px" height="32px" viewBox="0 0 32 32" version="1.1" xmlns="http://www.w3.org/2000/svg" xmlns:xlink="http://www.w3.org/1999/xlink" xmlns:sketch="http://www.bohemiancoding.com/sketch/ns">
    <!-- Generator: Sketch 3.0.3 (7891) - http://www.bohemiancoding.com/sketch -->
    <title>icon 26 hockey sticks</title>
    <desc>Created with Sketch.</desc>
    <defs></defs>
    <g id="Page-1" stroke="none" stroke-width="1" fill="none" fill-rule="evenodd" sketch:type="MSPage">
        <g id="icon-26-hockey-sticks" sketch:type="MSArtboardGroup" fill="#929292">
            <path d="M18.2465222,17.5069556 L21,22.9971098 L26.009222,22.9971098 C26.5564136,22.9971098 27,23.4397702 27,23.9960664 L27,24.9981533 C27,25.5498617 26.5469637,25.9971098 26.0029699,25.9971098 L19.9970301,25.9971094 C19.4463856,25.9971093 18.7964547,25.5873343 18.5566124,25.1044865 L16.5089361,20.9821279 L17.0690572,19.8618855 L19.45221,24.6596213 C19.5252646,24.8066941 19.8308811,24.9971093 19.9970302,24.9971094 L26.0029699,24.9971098 C25.997572,24.9971098 26,23.9960664 26,23.9960664 C26,23.9925135 21,23.9971098 21,23.9971098 L20.382811,23.9971098 L20.1061206,23.4454173 L17.6880172,18.6239655 L18.2465222,17.5069556 L18.2465222,17.5069556 Z M15.4923208,12.0153585 L13.2768991,7.59803332 C13.0074378,7.06075495 12.3467065,6.84492148 11.8026138,7.11894538 L11.0441269,7.50094565 C10.4973922,7.77630014 10.2798828,8.44186909 10.5524049,8.99050746 L13.7679734,15.4640532 L14.3280946,14.3438108 L13.2753835,12.224505 L14.2336239,11.7362572 L14.9338158,13.1323684 L15.4923208,12.0153585 L15.4923208,12.0153585 Z M13.7853074,10.8423596 L12.3830197,8.04634078 C12.3622267,8.00488174 12.3041983,7.98599422 12.2524225,8.01207034 L11.4939355,8.3940706 C11.4409222,8.42076998 11.4190256,8.48730656 11.4480024,8.54564226 L12.8304951,11.3288608 L13.7853074,10.8423596 L13.7853074,10.8423596 L13.7853074,10.8423596 Z M13.4433876,25.1044865 C13.2035453,25.5873343 12.5536144,25.9971093 12.0029699,25.9971094 L5.99703014,25.9971098 C5.45303631,25.9971098 5,25.5498617 5,24.9981533 L5,23.9960664 C5,23.4397702 5.44358641,22.9971098 5.99077797,22.9971098 L11,22.9971098 L18.7231009,7.59803332 C18.9925622,7.06075495 19.6532935,6.84492148 20.1973862,7.11894538 L20.9558731,7.50094565 C21.5026078,7.77630014 21.7201172,8.44186909 21.4475951,8.99050746 L13.4433876,25.1044865 L13.4433876,25.1044865 Z M18.2146926,10.8423596 L19.6169803,8.04634078 C19.6377733,8.00488174 19.6958017,7.98599422 19.7475775,8.01207034 L20.5060645,8.3940706 C20.5590778,8.42076998 20.5809744,8.48730656 20.5519976,8.54564226 L19.1695049,11.3288608 L18.2146926,10.8423596 L18.2146926,10.8423596 L18.2146926,10.8423596 Z M11.8938794,23.4454173 L11.617189,23.9971098 L11,23.9971098 C11,23.9971098 6,23.9925135 6,23.9960664 C6,23.9960664 6.00242796,24.9971098 5.99703007,24.9971098 L12.0029698,24.9971094 C12.1691189,24.9971093 12.4747354,24.8066941 12.54779,24.6596213 L18.7246165,12.224505 L17.7663761,11.7362572 L11.8938794,23.4454173 L11.8938794,23.4454173 Z" id="hockey-sticks" sketch:type="MSShapeGroup"></path>
        </g>
    </g>
</svg>

<svg width="32" height="32" xmlns="http://www.w3.org/2000/svg"><path d="M18.247 17.507L21 22.997h5.01c.546 0 .99.443.99 1v1.001c0 .552-.453 1-.997 1h-6.006c-.55 0-1.2-.41-1.44-.894l-2.048-4.122.56-1.12 2.383 4.798c.073.147.379.337.545.337h6.006c-.005 0-.003-1-.003-1 0-.004-5 0-5 0h-.617l-.277-.552-2.418-4.821.559-1.117zm-2.755-5.492l-2.215-4.417a1.096 1.096 0 0 0-1.474-.48l-.759.383c-.547.275-.764.94-.492 1.49l3.216 6.473.56-1.12-1.053-2.12.959-.488.7 1.396.558-1.117zm-1.707-1.173l-1.402-2.796c-.02-.041-.079-.06-.13-.034l-.76.382a.112.112 0 0 0-.045.152l1.382 2.783.955-.487zm-.342 14.262c-.24.483-.89.893-1.44.893H5.997c-.544 0-.997-.447-.997-.999v-1.002c0-.556.444-.999.99-.999H11l7.723-15.399c.27-.537.93-.753 1.474-.48l.759.383c.547.275.764.94.492 1.49l-8.005 16.113zm4.772-14.262l1.402-2.796c.02-.041.079-.06.13-.034l.76.382a.112.112 0 0 1 .045.152l-1.382 2.783-.955-.487zm-6.321 12.603l-.277.552H11s-5-.004-5 0c0 0 .002 1-.003 1h6.006c.166 0 .472-.19.545-.337l6.177-12.435-.959-.489-5.872 11.71z" fill="#929292" fill-rule="evenodd"/></svg>
